X: 10114
T: Difyrrwch Gwyr Mawddwy
R: barndance
M: 4/4
K: Dmajor
d/e/|f>g fe fd dA|B/c/d/B/ AG F3 A|G>A BA/G/ FA d>B|AD/E/ FE D3||
D/E/|FD FA B/c/d/B/ ^AF|B>^A Bc d3 c|Bc de f^e f^A|B/c/d/e/ f/e/d/c/ B3 d|
f>g fe fd dA|B/c/d/B/ AG {G} F3 A|~G>A BA/G/ Fd cB|A D/E/ FE D3||

